X:1
T:The Shepherds of Bethlehem
T:John Henry Hopkins, Jr, 1863
T:The Shepherds of Bethlehem
T:Public Domain
C:John Henry Hopkins, Jr, 1863
Z:Public Domain
%%score ( 1 2 ) ( 3 4 )
L:1/8
M:4/4
K:C
V:1 treble 
V:2 treble 
V:3 bass 
V:4 bass 
V:1
 [DG]2 | [FA]2 [EG]2 [CE]2 [CF]2 | [DG]3 [DA] [DG]2 [EG]2 | [FA]2 [EG]2 [CE]2 [CF]2 | %4
 [DG]3 [EA] [DG]2 [EG]2 | [FA]2 [Gc]2 [FB]2 [FA]2 | [EG]2 [CE]2 [B,D]2 [CE]2 | %7
 [CF]2 [FA]2 [DG]2 [CE]2 | (C2 B,)C C2 ([DG][EA]) | [FB]2 [FB]2 [Gc]2 [Ec]2 | d3 c [DB]2 (AB) | %11
 [Ec]2 [FA]2 [DG]2 [DF]2 | [CF]3 [EG] [FA]2 (A=B) | [Ec]2 [FA]2 [DG]2 [CE]2 | %14
 [CD]3 [CE] [B,D]2 (GA) | [GB]>[GB] [GB]2 [Gc]2 [Ec]2 | (d3 B) [DG]2 ||"^Refrain" [DG]>[DG] | %18
 [FA]4 [EG]2 [CA]>[CA] | [EB]4 [CA]2 [FB]>[FB] | [Ec]2 [CG]2 [CE]3 [CF] | [DG]4 |] %22
V:2
 x2 | x8 | x8 | x8 | x8 | x8 | x8 | x8 | D3 C C2 x2 | x8 | D4 F2 x2 | x8 | x6 F2 | x8 | x6 D2 | %15
 x8 | D4 x2 || x2 | x8 | x8 | x8 | x4 |] %22
V:3
 [G,B,]2 | [F,C]2 [C,C]2 [C,G,]2 [A,,A,]2 | [G,,B,]3 [G,C] [G,B,]2 [C,C]2 | %3
 [F,C]2 [C,C]2 [C,G,]2 [A,,A,]2 | [G,,B,]3 [G,C] [G,B,]2 [C,C]2 | [F,C]2 [C,E]2 [D,D]2 [F,C]2 | %6
 [C,C]2 [C,G,]2 [G,,G,]2 [C,G,]2 | [F,A,]2 [F,C]2 [G,B,]2 [C,C]2 | ([D,A,]2 G,)E, [C,E,]2 (B,C) | %9
 [G,D]2 [G,D]2 [C,E]2 [C,C]2 | B,3 A, G,2 (F,G,) | [A,,A,]2 [F,C]2 [E,C]2 [C,C]2 | %12
 [A,C]3 [G,_B,] [F,A,]2 [D,F,]2 | [C,G,]2 [F,A,]2 [G,B,]2 [A,C]2 | [D,A,]3 [^F,A,] [G,B,]2 (B,C) | %15
 [G,D]>[G,D] [F,D]2 [E,C]2 [C,C]2 | (B,3 G,) [G,B,]2 || [G,B,]>[G,B,] | %18
 [F,C]4 [C,C]2 [F,A,]>[F,A,] | [E,^G,]4 A,2 [=G,D]>[G,D] | [C,C]2 [E,C]2 [A,C]3 [A,C] | [G,B,]4 |] %22
V:4
 x2 | x8 | x8 | x8 | x8 | x8 | x8 | x8 | x2 G,,2 x G,,2 x | x8 | A,,4 G,2 D,2 | x8 | x8 | x8 | %14
 x6 G,2 | x8 | G,,4 x2 || x2 | x8 | x4 A,2 x2 | x8 | x4 |] %22

